**kern	**silbe	**kern	**silbe	**harmony	**chordsym	**phrase	**timestamp	**leadinstrument
*ICvox	*	*ICvox	*	*M4/4	*M4/4	*	*	*
*	*	*	*	*C:	*C:	*	*	*
=1	=1	=1	=1	=1	=1	=1	=1	=1
*C:	*	*C:	*	*	*	*	*	*
*M4/4	*	*M4/4	*	*	*	*	*	*
*clefF4	*	*clefG2	*	*	*	*	*	*
1r	.	1r	.	1r;	r	.	0	r
=2	=2	=2	=2	=2	=2	=2	=2	=2
*	*	*	*	*>A_intro	*>A_intro	*>A_intro	*>A_intro	*>A_intro
1r	.	1r	.	1FMM	F:maj7 (F A C E)	newline	0.232	r
=3	=3	=3	=3	=3	=3	=3	=3	=3
1r	.	1r	.	1FMM	F:maj7 (F A C E)	.	.	r
=4	=4	=4	=4	=4	=4	=4	=4	=4
2r	.	1r	.	1CMM	C:maj7 (C E G B)	.	.	r
4r	.	.	.	.	.	.	.	.
8dq	_	.	.	.	.	.	.	.
8e	I	.	.	.	.	.	.	.
8f	was	.	.	.	.	.	.	.
=5	=5	=5	=5	=5	=5	=5	=5	=5
8e	sit-	1r	.	1Amm	A:min7 (A C E G)	.	.	r
16c	-tin'	.	.	.	.	.	.	.
[16c	all	.	.	.	.	.	.	.
16c]	_	.	.	.	.	.	.	.
16A	a-	.	.	.	.	.	.	.
8c	-lone	.	.	.	.	.	.	.
4r	.	.	.	.	.	.	.	.
8e	wat-	.	.	.	.	.	.	.
8f	-chin'	.	.	.	.	.	.	.
=6	=6	=6	=6	=6	=6	=6	=6	=6
8e	peo-	1r	.	1FMM	F:maj7 (F A C E)	newline	9.674	r
8c	-ple	.	.	.	.	.	.	.
16c	get	.	.	.	.	.	.	.
16A	it	.	.	.	.	.	.	.
8cq	_	.	.	.	.	.	.	.
[8d	on	.	.	.	.	.	.	.
8d]	_	.	.	.	.	.	.	.
8r	.	.	.	.	.	.	.	.
16A	with	.	.	.	.	.	.	.
8.A	each	.	.	.	.	.	.	.
=7	=7	=7	=7	=7	=7	=7	=7	=7
8Gq	_	.	.	.	.	.	.	.
8.A	o-	1r	.	1FMM	F:maj7 (F A C E)	.	.	r
[16G	-ther	.	.	.	.	.	.	.
8G]	_	.	.	.	.	.	.	.
8r	.	.	.	.	.	.	.	.
2r	.	.	.	.	.	.	.	.
=8	=8	=8	=8	=8	=8	=8	=8	=8
2r	.	1r	.	1CMM	C:maj7 (C E G B)	.	.	r
4r	.	.	.	.	.	.	.	.
8dq	_	.	.	.	.	.	.	.
8e	They	.	.	.	.	.	.	.
8f	were	.	.	.	.	.	.	.
=9	=9	=9	=9	=9	=9	=9	=9	=9
8e	dan-	1r	.	1Amm	A:min7 (A C E G)	.	.	r
16c	-cin'	.	.	.	.	.	.	.
[16c	'cross	.	.	.	.	.	.	.
16c]	_	.	.	.	.	.	.	.
16A	the	.	.	.	.	.	.	.
8c	floor	.	.	.	.	.	.	.
4r	.	.	.	.	.	.	.	.
8e	tur-	.	.	.	.	.	.	.
8f	-nin',	.	.	.	.	.	.	.
=10	=10	=10	=10	=10	=10	=10	=10	=10
*	*	*	*	*>B_verse	*>B_verse	*>B_verse	*>B_verse	*>B_verse
8dq	_	.	.	.	.	.	.	.
8e	mo-	1r	.	1Dmm	D:min7 (D F A C)	newline	19.113	voice
8c	-vin'	.	.	.	.	.	.	.
16c	back	.	.	.	.	.	.	.
8A	and	.	.	.	.	.	.	.
16cQ	_	.	.	.	.	.	.	.
[16d	forth	.	.	.	.	.	.	.
8d]	_	.	.	.	.	.	.	.
8r	.	.	.	.	.	.	.	.
8A	they	.	.	.	.	.	.	.
8A	were	.	.	.	.	.	.	.
=11	=11	=11	=11	=11	=11	=11	=11	=11
8Gq	_	.	.	.	.	.	.	.
8.A	lo-	1r	.	1GMm	G:11 (G B F C)	.	.	voice
[16G	-vers	.	.	.	.	.	.	.
8G]	_	.	.	.	.	.	.	.
8r	.	.	.	.	.	.	.	.
2r	.	.	.	.	.	.	.	.
=12	=12	=12	=12	=12	=12	=12	=12	=12
*	*	*clefF4	*	*	*	*	*	*
2r	.	2r	.	1CMM	C:maj7 (C E G B)	.	.	voice
4c	One	4E	One	.	.	.	.	.
8cq	_	.	.	.	.	.	.	.
4d	more	4G	more	.	.	.	.	.
=13	=13	=13	=13	=13	=13	=13	=13	=13
4e	lone-	4c	lone-	1Amm	A:min7 (A C E G)	.	.	voice
8f	-ly	8d	-ly	.	.	.	.	.
8e	night	8c	night	.	.	.	.	.
4r	.	4r	.	.	.	.	.	.
8c	for	8G	for	.	.	.	.	.
16c	me	8G	me	.	.	.	.	.
[16G	_	.	.	.	.	.	.	.
=14	=14	=14	=14	=14	=14	=14	=14	=14
4G]	_	2r	.	1Dmm	D:min7 (D F A C)	newline	28.609	voice
4r	.	.	.	.	.	.	.	.
8r	.	8r	.	.	.	.	.	.
8c	I	8G	I	.	.	.	.	.
8d	looked	8A	looked	.	.	.	.	.
8dq	_	8Aq	_	.	.	.	.	.
8e	up	8c	up	.	.	.	.	.
=15	=15	=15	=15	=15	=15	=15	=15	=15
4r	.	4r	.	1GMm	G:11 (G B F C)	.	.	voice
8r	.	8r	.	.	.	.	.	.
8f	what	8c	what	.	.	.	.	.
8e	did	8A	did	.	.	.	.	.
4a	I	4c	I	.	.	.	.	.
8gq	_	8cq	_	.	.	.	.	.
8a	see	8d	see?	.	.	.	.	.
=16	=16	=16	=16	=16	=16	=16	=16	=16
8aq	_	8cq	_	.	.	.	.	.
8a	_	2d	_	1CMM	C:maj7 (C E G B)	.	.	voice
[4.g	_	.	.	.	.	.	.	.
8g]	_	2r	.	.	.	.	.	.
8a	_	.	.	.	.	.	.	.
4r	.	.	.	.	.	.	.	.
=17	=17	=17	=17	=17	=17	=17	=17	=17
8e g	Se-	1r	.	2Gmm	G:min7 (G B- D F)	.	.	voice
16e g	-xy	.	.	.	.	.	.	.
[16d [f	eyes	.	.	.	.	.	.	.
8d] f]	_	.	.	.	.	.	.	.
8r	.	.	.	.	.	.	.	.
4r	.	.	.	2CMm	C:7 (C E G B-)	.	.	voice
8r	.	.	.	.	.	.	.	.
16c	mo-	.	.	.	.	.	.	.
16d	-vin'	.	.	.	.	.	.	.
=18	=18	=18	=18	=18	=18	=18	=18	=18
*	*	*	*	*>C_prechorus	*>C_prechorus	*>C_prechorus	*>C_prechorus	*>C_prechorus
8e	'cross	1r	.	1FMM	F:maj7 (F A C E)	newline	37.972	voice
16e	the	.	.	.	.	.	.	.
[16d	floor,	.	.	.	.	.	.	.
8d]	_	.	.	.	.	.	.	.
16c	got	.	.	.	.	.	.	.
16d	me	.	.	.	.	.	.	.
8e	wan-	.	.	.	.	.	.	.
16e	-tin	.	.	.	.	.	.	.
32c	more	.	.	.	.	.	.	.
[32A	_	.	.	.	.	.	.	.
8A]	_	.	.	.	.	.	.	.
8r	.	.	.	.	.	.	.	.
=19	=19	=19	=19	=19	=19	=19	=19	=19
8B e	se-	2r	.	1Emm	E:min7 (E G B D)	.	.	voice
16B e	-xy	.	.	.	.	.	.	.
[16B [e	eyes	.	.	.	.	.	.	.
24B] e]	_	.	.	.	.	.	.	.
12A d	_	.	.	.	.	.	.	.
8G B	_	.	.	.	.	.	.	.
2r	.	8e	Se-	.	.	.	.	.
.	.	16e	-xy	.	.	.	.	.
.	.	[16e	eyes	.	.	.	.	.
.	.	8e]	_	.	.	.	.	.
.	.	8r	.	.	.	.	.	.
=20	=20	=20	=20	=20	=20	=20	=20	=20
1r	.	8e	se-	1FMM	F:maj7 (F A C E)	.	.	voice
.	.	16e	-xy	.	.	.	.	.
.	.	[16e	eyes	.	.	.	.	.
.	.	4e_	_	.	.	.	.	.
.	.	8e]	_	.	.	.	.	.
.	.	8r	.	.	.	.	.	.
.	.	4r	.	.	.	.	.	.
=21	=21	=21	=21	=21	=21	=21	=21	=21
*	*	*clefG2	*	*	*	*	*	*
8e g	Se-	2r	.	1GM	G:sus4(b7) (G C D F)	.	.	voice
16e g	-xy	.	.	.	.	.	.	.
[16d [f	eyes	.	.	.	.	.	.	.
8d] f]	_	.	.	.	.	.	.	.
8r	.	.	.	.	.	.	.	.
4r	.	8e	Se-	.	.	.	.	.
.	.	16e	-xy	.	.	.	.	.
.	.	[16e	eyes	.	.	.	.	.
8r	.	4e_ [g	_	.	.	.	.	.
16c	Get-	.	.	.	.	.	.	.
16d	-tin'	.	.	.	.	.	.	.
=22	=22	=22	=22	=22	=22	=22	=22	=22
*	*	*	*	*>D_chorus	*>D_chorus	*>D_chorus	*>D_chorus	*>D_chorus
8e	down	16e_ [a	_	1FMM	F:maj7 (F A C E)	newline	47.377	voice
.	.	8.e_ a_ [cc	_	.	.	.	.	.
16e	with	.	.	.	.	.	.	.
16e	you	.	.	.	.	.	.	.
16r	.	4e_ a_ cc_	_	.	.	.	.	.
16A	I	.	.	.	.	.	.	.
16c	wan-	.	.	.	.	.	.	.
16d	-na	.	.	.	.	.	.	.
32e	move	4e_ a_ cc_	_	.	.	.	.	.
16.A	_	.	.	.	.	.	.	.
16A	with	.	.	.	.	.	.	.
16A	y-	.	.	.	.	.	.	.
8A	-you	8e] a] cc]	_	.	.	.	.	.
.	.	16d#Q 16g]Q 16bQ	_	.	.	.	.	.
8r	.	[8e a cc	_	.	.	.	.	.
=23	=23	=23	=23	=23	=23	=23	=23	=23
8B e	se-	1e] g b	_	1FMM	F:maj7 (F A C E)	.	.	voice
16B e	-xy	.	.	.	.	.	.	.
[16B [e	eyes	.	.	.	.	.	.	.
24B] e]	_	.	.	.	.	.	.	.
12A d	_	.	.	.	.	.	.	.
8G B	_	.	.	.	.	.	.	.
2r	.	.	.	.	.	.	.	.
=24	=24	=24	=24	=24	=24	=24	=24	=24
1r	.	1r	.	1CMM	C:maj7 (C E G B)	.	.	voice
=25	=25	=25	=25	=25	=25	=25	=25	=25
1r	.	1r	.	1Amm	A:min7 (A C E G)	.	.	voice
=26	=26	=26	=26	=26	=26	=26	=26	=26
1r	.	1r	.	1FMM	F:maj7 (F A C E)	newline	56.898	voice
=27	=27	=27	=27	=27	=27	=27	=27	=27
1r	.	1r	.	1FMM	F:maj7 (F A C E)	.	.	voice
=28	=28	=28	=28	=28	=28	=28	=28	=28
2r	.	1r	.	1CMM	C:maj7 (C E G B)	.	.	voice
4r	.	.	.	.	.	.	.	.
8dq	_	.	.	.	.	.	.	.
8e	I	.	.	.	.	.	.	.
8f	got	.	.	.	.	.	.	.
=29	=29	=29	=29	=29	=29	=29	=29	=29
8e	up	1r	.	2Emm	E:min9 (E G D F#)	.	.	voice
16c	and	.	.	.	.	.	.	.
[16c	took	.	.	.	.	.	.	.
16c]	_	.	.	.	.	.	.	.
8A	your	.	.	.	.	.	.	.
16c	hand	.	.	.	.	.	.	.
4r	.	.	.	4Am	A:sus4(b7) (A D E G)	.	.	voice
8e	and	.	.	4AMm	A:7 (A C# E G)	.	.	voice
8f	we	.	.	.	.	.	.	.
=30	=30	=30	=30	=30	=30	=30	=30	=30
*	*	*	*	*>E_interlude	*>E_interlude	*>E_interlude	*>E_interlude	*>E_interlude
8d#q	_	.	.	.	.	.	.	.
8e	both	1r	.	1FMM	F:maj7 (F A C E)	newline	66.218	flute
16c	be-	.	.	.	.	.	.	.
[16c	-gan	.	.	.	.	.	.	.
16c]	_	.	.	.	.	.	.	.
16A	to	.	.	.	.	.	.	.
8cq	_	.	.	.	.	.	.	.
[8d	dance	.	.	.	.	.	.	.
8d]	_	.	.	.	.	.	.	.
8r	.	.	.	.	.	.	.	.
8r	.	.	.	.	.	.	.	.
16A	to	.	.	.	.	.	.	.
16A	the	.	.	.	.	.	.	.
=31	=31	=31	=31	=31	=31	=31	=31	=31
8Gq	_	.	.	.	.	.	.	.
8.A	mu-	1r	.	1Emm	E:min7 (E G B D)	.	.	flute
[16G	-sic	.	.	.	.	.	.	.
8G]	_	.	.	.	.	.	.	.
8r	.	.	.	.	.	.	.	.
2r	.	.	.	.	.	.	.	.
=32	=32	=32	=32	=32	=32	=32	=32	=32
2r	.	1r	.	1FMM	F:maj7 (F A C E)	.	.	flute
8r	.	.	.	.	.	.	.	.
8d#q	_	.	.	.	.	.	.	.
4e	Ooh,	.	.	.	.	.	.	.
8dq	_	.	.	.	.	.	.	.
8f	your	.	.	.	.	.	.	.
=33	=33	=33	=33	=33	=33	=33	=33	=33
8e	ma-	1r	.	1GM	G:sus4(b7) (G C D F)	.	.	flute
8c	-gic	.	.	.	.	.	.	.
8c	cast	.	.	.	.	.	.	.
16A	a	.	.	.	.	.	.	.
16c	spell	.	.	.	.	.	.	.
4r	.	.	.	.	.	.	.	.
16r	.	.	.	.	.	.	.	.
16G	it	.	.	.	.	.	.	.
16e	did-	.	.	.	.	.	.	.
16f	-n't	.	.	.	.	.	.	.
=34	=34	=34	=34	=34	=34	=34	=34	=34
*	*	*	*	*>B_verse	*>B_verse	*>B_verse	*>B_verse	*>B_verse
8dq	_	.	.	.	.	.	.	.
8e	take	1r	.	1Dmm	D:min7 (D F A C)	newline	75.683	voice
8c	long	.	.	.	.	.	.	.
16c	'till	.	.	.	.	.	.	.
8A	we	.	.	.	.	.	.	.
16cQ	_	.	.	.	.	.	.	.
[16d	fell	.	.	.	.	.	.	.
8d]	_	.	.	.	.	.	.	.
8r	.	.	.	.	.	.	.	.
8A	and	.	.	.	.	.	.	.
8Gq	_	.	.	.	.	.	.	.
8A	we	.	.	.	.	.	.	.
=35	=35	=35	=35	=35	=35	=35	=35	=35
8Gq	_	.	.	.	.	.	.	.
8.A	knew	1r	.	1GMm	G:11 (G B F C)	.	.	voice
[16G	it	.	.	.	.	.	.	.
8G]	_	.	.	.	.	.	.	.
8r	.	.	.	.	.	.	.	.
2r	.	.	.	.	.	.	.	.
=36	=36	=36	=36	=36	=36	=36	=36	=36
2r	.	1r	.	1CMM	C:maj7 (C E G B)	.	.	voice
8Bq	_	.	.	.	.	.	.	.
4c	No	.	.	.	.	.	.	.
8cq	_	.	.	.	.	.	.	.
4d	more	.	.	.	.	.	.	.
=37	=37	=37	=37	=37	=37	=37	=37	=37
*	*	*clefF4	*	*	*	*	*	*
4e	lone-	4c	lone-	1Amm	A:min7 (A C E G)	.	.	voice
8f	-ly	8d	-ly	.	.	.	.	.
8e	nights	8c	nights	.	.	.	.	.
4r	.	4r	.	.	.	.	.	.
8c	for	8G	for	.	.	.	.	.
16c	me	8G	me	.	.	.	.	.
[16G	_	.	.	.	.	.	.	.
=38	=38	=38	=38	=38	=38	=38	=38	=38
4G]	_	1r	.	1Dmm	D:min7 (D F A C)	newline	85.016	voice
4r	.	.	.	.	.	.	.	.
8r	.	.	.	.	.	.	.	.
8G c	This	.	.	.	.	.	.	.
8A d	is	.	.	.	.	.	.	.
8Aq 8dq	_	.	.	.	.	.	.	.
[8c [e	how	.	.	.	.	.	.	.
=39	=39	=39	=39	=39	=39	=39	=39	=39
*clefG2	*	*clefG2	*	*	*	*	*	*
8c] e]	_	1e a cc	Ha,	1GMm	G:11 (G B F C)	.	.	voice
8r	.	.	.	.	.	.	.	.
8r	.	.	.	.	.	.	.	.
8c f	it's	.	.	.	.	.	.	.
4A e	gon-	.	.	.	.	.	.	.
8d a	-na	.	.	.	.	.	.	.
8gq	_	.	.	.	.	.	.	.
8d a	be	.	.	.	.	.	.	.
=40	=40	=40	=40	=40	=40	=40	=40	=40
2d [g	_	1f a cc	_	1CMM	C:maj7 (C E G B)	.	.	voice
8g]	_	.	.	.	.	.	.	.
8a	_	.	.	.	.	.	.	.
4r	.	.	.	.	.	.	.	.
=41	=41	=41	=41	=41	=41	=41	=41	=41
*clefF4	*	*	*	*	*	*	*	*
8e g	Se-	2.a cc ee	Ooh	2Gmm	G:min7 (G B- D F)	.	.	voice
16e g	-xy	.	.	.	.	.	.	.
[16d [f	eyes	.	.	.	.	.	.	.
8d] f]	_	.	.	.	.	.	.	.
8r	.	.	.	.	.	.	.	.
4r	.	.	.	2CMm	C:7 (C E G B-)	.	.	voice
8r	.	4r	.	.	.	.	.	.
16c	mo-	.	.	.	.	.	.	.
16d	-vin'	.	.	.	.	.	.	.
=42	=42	=42	=42	=42	=42	=42	=42	=42
*	*	*	*	*>C_prechorus	*>C_prechorus	*>C_prechorus	*>C_prechorus	*>C_prechorus
8e	'cross	1r	.	1FMM	F:maj7 (F A C E)	newline	94.339	voice
16e	the	.	.	.	.	.	.	.
[16d	floor,	.	.	.	.	.	.	.
8d]	_	.	.	.	.	.	.	.
16c	got	.	.	.	.	.	.	.
16d	me	.	.	.	.	.	.	.
8e	wan-	.	.	.	.	.	.	.
16e	-tin	.	.	.	.	.	.	.
32c	more	.	.	.	.	.	.	.
[32A	_	.	.	.	.	.	.	.
8A]	_	.	.	.	.	.	.	.
8r	.	.	.	.	.	.	.	.
=43	=43	=43	=43	=43	=43	=43	=43	=43
8B e	se-	2r	.	1Emm	E:min7 (E G B D)	.	.	voice
16B e	-xy	.	.	.	.	.	.	.
[16B [d	eyes	.	.	.	.	.	.	.
24B] d]	_	.	.	.	.	.	.	.
12A c	_	.	.	.	.	.	.	.
8G B	_	.	.	.	.	.	.	.
2r	.	8e a dd	Se-	.	.	.	.	.
.	.	16e	-xy	.	.	.	.	.
.	.	[16e	eyes	.	.	.	.	.
.	.	8e]	_	.	.	.	.	.
.	.	8r	.	.	.	.	.	.
=44	=44	=44	=44	=44	=44	=44	=44	=44
1r	.	8e	se-	1FMM	F:maj7 (F A C E)	.	.	voice
.	.	16e	-xy	.	.	.	.	.
.	.	[16e	eyes	.	.	.	.	.
.	.	4e_	_	.	.	.	.	.
.	.	8e]	_	.	.	.	.	.
.	.	8r	.	.	.	.	.	.
.	.	4r	.	.	.	.	.	.
=45	=45	=45	=45	=45	=45	=45	=45	=45
8e g	Se-	2r	.	1GM	G:sus4(b7) (G C D F)	.	.	voice
16e g	-xy	.	.	.	.	.	.	.
[16d [f	eyes	.	.	.	.	.	.	.
8d] f]	_	.	.	.	.	.	.	.
8r	.	.	.	.	.	.	.	.
4r	.	8e	Se-	.	.	.	.	.
.	.	16e	-xy	.	.	.	.	.
.	.	[16e	eyes	.	.	.	.	.
8r	.	4e_ [g	_	.	.	.	.	.
16c	Get-	.	.	.	.	.	.	.
16d	-tin'	.	.	.	.	.	.	.
=46	=46	=46	=46	=46	=46	=46	=46	=46
*	*	*	*	*>D_chorus	*>D_chorus	*>D_chorus	*>D_chorus	*>D_chorus
8e	down	16e_ [a	_	1FMM	F:maj7 (F A C E)	newline	103.715	voice
.	.	8.e_ a_ [cc	_	.	.	.	.	.
16e	with	.	.	.	.	.	.	.
16e	you	.	.	.	.	.	.	.
16r	.	4e_ a_ cc_	_	.	.	.	.	.
16A	I	.	.	.	.	.	.	.
16c	wan-	.	.	.	.	.	.	.
16d	-na	.	.	.	.	.	.	.
32e	move	4e_ a_ cc_	_	.	.	.	.	.
16.A	_	.	.	.	.	.	.	.
16A	with	.	.	.	.	.	.	.
16A	y-	.	.	.	.	.	.	.
8A	-you	8e] a] cc]	_	.	.	.	.	.
.	.	16d#Q 16g]Q 16bQ	_	.	.	.	.	.
8r	.	[16e a cc	_	.	.	.	.	.
.	.	16r	.	.	.	.	.	.
=47	=47	=47	=47	=47	=47	=47	=47	=47
8B e	se-	1e] g b	_	1FMM	F:maj7 (F A C E)	.	.	voice
16B e	-xy	.	.	.	.	.	.	.
[16B [e	eyes	.	.	.	.	.	.	.
24B] e]	_	.	.	.	.	.	.	.
12A d	_	.	.	.	.	.	.	.
8G B	_	.	.	.	.	.	.	.
2r	.	.	.	.	.	.	.	.
=48	=48	=48	=48	=48	=48	=48	=48	=48
2r	.	1r	.	1CMM	C:maj7 (C E G B)	.	.	voice
8r	.	.	.	.	.	.	.	.
16f	(Grunt)	.	.	.	.	.	.	.
16c	_	.	.	.	.	.	.	.
4r	.	.	.	.	.	.	.	.
=49	=49	=49	=49	=49	=49	=49	=49	=49
1r	.	1r	.	1Amm	A:min7 (A C E G)	.	.	voice
=50	=50	=50	=50	=50	=50	=50	=50	=50
1r	.	1r	.	1FMM	F:maj7 (F A C E)	newline	113.102	voice
=51	=51	=51	=51	=51	=51	=51	=51	=51
1r	.	1r	.	1FMM	F:maj7 (F A C E)	.	.	voice
=52	=52	=52	=52	=52	=52	=52	=52	=52
1r	.	1r	.	1CMM	C:maj7 (C E G B)	.	.	voice
=53	=53	=53	=53	=53	=53	=53	=53	=53
1r	.	1r	.	2Emm	E:min9 (E G D F#)	.	.	voice
.	.	.	.	4Am	A:sus4(b7) (A D E G)	.	.	voice
.	.	.	.	4AMm	A:7 (A C# E G)	.	.	voice
=54	=54	=54	=54	=54	=54	=54	=54	=54
1r	.	1r	.	1FMM	F:maj7 (F A C E)	newline	122.394	voice
=55	=55	=55	=55	=55	=55	=55	=55	=55
1r	.	1r	.	1FMM	F:maj7 (F A C E)	.	.	voice
=56	=56	=56	=56	=56	=56	=56	=56	=56
2r	.	1r	.	1CMM	C:maj7 (C E G B)	.	.	voice
8Bq	_	.	.	.	.	.	.	.
4c	No	.	.	.	.	.	.	.
8cq	_	.	.	.	.	.	.	.
4d	more	.	.	.	.	.	.	.
=57	=57	=57	=57	=57	=57	=57	=57	=57
4e	lone-	4c	lone-	1Amm	A:min7 (A C E G)	.	.	voice
8f	-ly	8d	-ly	.	.	.	.	.
8e	nights	8c	nights	.	.	.	.	.
4r	.	4r	.	.	.	.	.	.
8c	for	8G	for	.	.	.	.	.
16c	me	8G	me	.	.	.	.	.
[16G	_	.	.	.	.	.	.	.
=58	=58	=58	=58	=58	=58	=58	=58	=58
4G]	_	1r	.	1FMM	F:maj7 (F A C E)	newline	131.789	voice
4r	.	.	.	.	.	.	.	.
8r	.	.	.	.	.	.	.	.
8G c	This	.	.	.	.	.	.	.
8A d	is	.	.	.	.	.	.	.
8Aq 8dq	_	.	.	.	.	.	.	.
[8c [e	how	.	.	.	.	.	.	.
=59	=59	=59	=59	=59	=59	=59	=59	=59
8c] e]	_	1e a cc	Ha	1FMM	F:maj7 (F A C E)	.	.	voice
8r	.	.	.	.	.	.	.	.
8r	.	.	.	.	.	.	.	.
*clefG2	*	*	*	*	*	*	*	*
8c f	it's	.	.	.	.	.	.	.
4A e	gon-	.	.	.	.	.	.	.
8d a	-na	.	.	.	.	.	.	.
8gq	_	.	.	.	.	.	.	.
8d a	be	.	.	.	.	.	.	.
=60	=60	=60	=60	=60	=60	=60	=60	=60
2d [g	_	1f a cc	_	1CMM	C:maj7 (C E G B)	.	.	voice
8g]	_	.	.	.	.	.	.	.
8a	_	.	.	.	.	.	.	.
4r	.	.	.	.	.	.	.	.
=61	=61	=61	=61	=61	=61	=61	=61	=61
*clefF4	*	*	*	*	*	*	*	*
8e g	Se-	2r	.	2Emm	E:min9 (E G D F#)	.	.	voice
16e g	-xy	.	.	.	.	.	.	.
[16d [f	eyes	.	.	.	.	.	.	.
8d] f]	_	.	.	.	.	.	.	.
8r	.	.	.	.	.	.	.	.
4r	.	16r	.	4Am	A:sus4(b7) (A D E G)	.	.	voice
.	.	[8.e	(Vocalizing)	.	.	.	.	.
8r	.	4e]	_	4AMm	A:7 (A C# E G)	.	.	voice
16c	mo-	.	.	.	.	.	.	.
16d	-vin'	.	.	.	.	.	.	.
=62	=62	=62	=62	=62	=62	=62	=62	=62
*	*	*	*	*>B_solo	*>B_solo	*>B_solo	*>B_solo	*>B_solo
8e	'cross	4d	_	1Dmm	D:min7 (D F A C)	newline	141.107	guitar
16e	the	.	.	.	.	.	.	.
[16d	floor,	.	.	.	.	.	.	.
8d]	_	8A	_	.	.	.	.	.
16c	got	8r	.	.	.	.	.	.
16d	me	.	.	.	.	.	.	.
8e	wan-	2r	.	.	.	.	.	.
16e	-tin	.	.	.	.	.	.	.
32c	more	.	.	.	.	.	.	.
[32A	_	.	.	.	.	.	.	.
8A]	_	.	.	.	.	.	.	.
8r	.	.	.	.	.	.	.	.
=63	=63	=63	=63	=63	=63	=63	=63	=63
8B e	se-	1r	.	1GMm	G:11 (G B F C)	.	.	guitar
16B e	-xy	.	.	.	.	.	.	.
[16B [d	eyes	.	.	.	.	.	.	.
24B] d]	_	.	.	.	.	.	.	.
12A c	_	.	.	.	.	.	.	.
8G B	_	.	.	.	.	.	.	.
2r	.	.	.	.	.	.	.	.
=64	=64	=64	=64	=64	=64	=64	=64	=64
1r	.	4r	.	1CMM	C:maj7 (C E G B)	.	.	guitar
.	.	4B	So	.	.	.	.	.
.	.	4c	se-	.	.	.	.	.
.	.	4e	-xy	.	.	.	.	.
=65	=65	=65	=65	=65	=65	=65	=65	=65
8e g	Se-	2r	.	1Amm	A:min7 (A C E G)	.	.	guitar
16e g	-xy	.	.	.	.	.	.	.
[16d [f	eyes	.	.	.	.	.	.	.
8d] f]	_	.	.	.	.	.	.	.
8r	.	.	.	.	.	.	.	.
4r	.	8e	Se-	.	.	.	.	.
.	.	16e	-xy	.	.	.	.	.
.	.	[16e	eyes!	.	.	.	.	.
8r	.	4e_ [g	_	.	.	.	.	.
16c	Get-	.	.	.	.	.	.	.
16d	-tin'	.	.	.	.	.	.	.
=66	=66	=66	=66	=66	=66	=66	=66	=66
8e	down	16e_ [a	_	1Dmm	D:min7 (D F A C)	newline	150.497	guitar
.	.	8.e_ a_ [cc	_	.	.	.	.	.
16e	with	.	.	.	.	.	.	.
16e	you	.	.	.	.	.	.	.
16r	.	4e_ a_ cc_	_	.	.	.	.	.
16A	I	.	.	.	.	.	.	.
16c	wan-	.	.	.	.	.	.	.
16d	-na	.	.	.	.	.	.	.
32e	move	4e_ a_ cc_	_	.	.	.	.	.
16.A	_	.	.	.	.	.	.	.
16A	with	.	.	.	.	.	.	.
16A	y-	.	.	.	.	.	.	.
8A	-you	8e] a] cc]	_	.	.	.	.	.
.	.	16d#Q 16g]Q 16bQ	_	.	.	.	.	.
8r	.	[16e a cc	_	.	.	.	.	.
.	.	16r	.	.	.	.	.	.
=67	=67	=67	=67	=67	=67	=67	=67	=67
8B e	se-	1e] g b	_	1GMm	G:11 (G B F C)	.	.	guitar
16B e	-xy	.	.	.	.	.	.	.
[16B [e	eyes	.	.	.	.	.	.	.
24B] e]	_	.	.	.	.	.	.	.
12A d	_	.	.	.	.	.	.	.
8G B	_	.	.	.	.	.	.	.
2r	.	.	.	.	.	.	.	.
=68	=68	=68	=68	=68	=68	=68	=68	=68
2r	.	4r	.	1CMM	C:maj7 (C E G B)	.	.	guitar
.	.	8r	.	.	.	.	.	.
.	.	8e	Se	.	.	.	.	.
8r	.	8r	.	.	.	.	.	.
4.e	Ooh,	4.e	xy,	.	.	.	.	.
=69	=69	=69	=69	=69	=69	=69	=69	=69
8e g	Se-	2.a cc ee	ah	2Gmm	G:min7 (G B- D F)	.	.	guitar
16e g	-xy	.	.	.	.	.	.	.
[16d [f	eyes	.	.	.	.	.	.	.
8d] f]	_	.	.	.	.	.	.	.
8r	.	.	.	.	.	.	.	.
4r	.	.	.	2CMm	C:7 (C E G B-)	.	.	guitar
8r	.	4r	.	.	.	.	.	.
16c	Get-	.	.	.	.	.	.	.
16d	-tin'	.	.	.	.	.	.	.
=70	=70	=70	=70	=70	=70	=70	=70	=70
*	*	*	*	*>C_prechorus	*>C_prechorus	*>C_prechorus	*>C_prechorus	*>C_prechorus
8e	down	1r	.	1FMM	F:maj7 (F A C E)	newline	159.762	voice
16e	with	.	.	.	.	.	.	.
16e	you	.	.	.	.	.	.	.
16r	.	.	.	.	.	.	.	.
16A	I	.	.	.	.	.	.	.
16c	wan-	.	.	.	.	.	.	.
16d	-na	.	.	.	.	.	.	.
32e	move	.	.	.	.	.	.	.
16.A	_	.	.	.	.	.	.	.
16A	with	.	.	.	.	.	.	.
16A	y-	.	.	.	.	.	.	.
8A	-you	.	.	.	.	.	.	.
8r	.	.	.	.	.	.	.	.
=71	=71	=71	=71	=71	=71	=71	=71	=71
8B e	se-	2r	.	1Emm	E:min7 (E G B D)	.	.	voice
16B e	-xy	.	.	.	.	.	.	.
[16B [e	eyes	.	.	.	.	.	.	.
24B] e]	_	.	.	.	.	.	.	.
12A d	_	.	.	.	.	.	.	.
8G B	_	.	.	.	.	.	.	.
2r	.	8e	Se-	.	.	.	.	.
.	.	16e	-xy	.	.	.	.	.
.	.	[16e	eyes	.	.	.	.	.
.	.	4e_	_	.	.	.	.	.
=72	=72	=72	=72	=72	=72	=72	=72	=72
1r	.	8e]	_	1FMM	F:maj7 (F A C E)	.	.	voice
.	.	8r	.	.	.	.	.	.
.	.	4r	.	.	.	.	.	.
.	.	2r	.	.	.	.	.	.
=73	=73	=73	=73	=73	=73	=73	=73	=73
8e g	Se-	2r	.	1GM	G:sus4(b7) (G C D F)	.	.	voice
16e g	-xy	.	.	.	.	.	.	.
[16d [f	eyes	.	.	.	.	.	.	.
8d] f]	_	.	.	.	.	.	.	.
8r	.	.	.	.	.	.	.	.
4r	.	8e	Se-	.	.	.	.	.
.	.	16e	-xy	.	.	.	.	.
.	.	[16e	eyes	.	.	.	.	.
8r	.	4e_ [g	_	.	.	.	.	.
16c	Get-	.	.	.	.	.	.	.
16d	-tin'	.	.	.	.	.	.	.
=74	=74	=74	=74	=74	=74	=74	=74	=74
*	*	*	*	*>D_chorus	*>D_chorus	*>D_chorus	*>D_chorus	*>D_chorus
8e	down	16e_ [a	_	1FMM	F:maj7 (F A C E)	newline	169.216	voice
.	.	8.e_ a_ [cc	_	.	.	.	.	.
16e	with	.	.	.	.	.	.	.
16e	you	.	.	.	.	.	.	.
16r	.	4e_ a_ cc_	_	.	.	.	.	.
16A	I	.	.	.	.	.	.	.
16c	wan-	.	.	.	.	.	.	.
16d	-na	.	.	.	.	.	.	.
32e	move	4e_ a_ cc_	_	.	.	.	.	.
16.A	_	.	.	.	.	.	.	.
16A	with	.	.	.	.	.	.	.
16A	y-	.	.	.	.	.	.	.
8A	-you	8e] a] cc]	_	.	.	.	.	.
.	.	16d#Q 16g]Q 16bQ	_	.	.	.	.	.
8r	.	[16e a cc	_	.	.	.	.	.
.	.	16r	.	.	.	.	.	.
=75	=75	=75	=75	=75	=75	=75	=75	=75
8B e	se-	1e] g b	_	1FMM	F:maj7 (F A C E)	.	.	voice
16B e	-xy	.	.	.	.	.	.	.
[16B [e	eyes	.	.	.	.	.	.	.
24B] e]	_	.	.	.	.	.	.	.
12A d	_	.	.	.	.	.	.	.
8G B	_	.	.	.	.	.	.	.
2r	.	.	.	.	.	.	.	.
=76	=76	=76	=76	=76	=76	=76	=76	=76
1r	.	1r	.	1CMM	C:maj7 (C E G B)	.	.	voice
*-	*-	*-	*-	*	*	*	*
=76	=76	=76	=76	=76
1Amm	A:min7 (A C E G)	.	.	voice
=77	=77	=77	=77	=77
1FMM	F:maj7 (F A C E)	newline	178.584	voice
=78	=78	=78	=78	=78
1FMM	F:maj7 (F A C E)	.	.	voice
=79	=79	=79	=79	=79
1CMM	C:maj7 (C E G B)	.	.	voice
=80	=80	=80	=80	=80
2Emm	E:min9 (E G D F#)	.	.	voice
4Am	A:sus4(b7) (A D E G)	.	.	voice
4AMm	A:7 (A C# E G)	.	.	voice
=81	=81	=81	=81	=81
*>_fadeout	*>_fadeout	*>_fadeout	*>_fadeout	*>_fadeout
1FMM	F:maj7 (F A C E)	newline	187.929	voice
=82	=82	=82	=82	=82
1FMM	F:maj7 (F A C E)	.	.	voice
=83	=83	=83	=83	=83
1CMM	C:maj7 (C E G B)	.	.	voice
=84	=84	=84	=84	=84
1Amm	A:min7 (A C E G)	.	.	voice
=85	=85	=85	=85	=85
1FMM	F:maj7 (F A C E)	newline	197.286	voice
=86	=86	=86	=86	=86
1FMM	F:maj7 (F A C E)	.	.	voice
=87	=87	=87	=87	=87
1CMM	C:maj7 (C E G B)	.	.	voice
=88	=88	=88	=88	=88
2Emm	E:min9 (E G D F#)	.	.	voice
4Am	A:sus4(b7) (A D E G)	.	.	voice
4AMm	A:7 (A C# E G)	.	.	voice
=89	=89	=89	=89	=89
1FMM	F:maj7 (F A C E)	newline	206.533	voice
=90	=90	=90	=90	=90
1FMM	F:maj7 (F A C E)	.	.	voice
=91	=91	=91	=91	=91
1CMM	C:maj7 (C E G B)	.	.	voice
=92	=92	=92	=92	=92
1Amm	A:min7 (A C E G)	.	.	voice
1r;	r	.	208.922	r
1r;	r	.	212.938	r
*-	*-	*-	*-	*-
!!!BillboardChartDate: 1980/03/08
!!!BillboardPeak: 5
!!!BillboardWeeksOnChart: 21
!!!COC: Dr. Hook
!!!ENC: Nathaniel Condit-Schultz
!!!EST: Awating manual error checking and editing.
!!!OTL: Sexy Eyes
!!!RDF**chordsym: original McGill chord annotation + (implied pitch class set, with bass pitch in first position)
!!!RDF**harmony: **recip + pitch class of root + harmonic quality
!!!RDF**leadinstrument: original McGill primary instrumentation annotation
!!!RDF**phrase: newline = linebreak in original McGill transcription
!!!RDF**timestamp: McGill audio timestamp in seconds
!!!RDT: 2017/01/12/
!!!SampleActualRank: 48
!!!SampleID#: 0831
!!!SampleTargetRank: 48
